src/assets/img/partners/luminate.svg

<svg clip-rule="evenodd" fill-rule="evenodd" stroke-linejoin="round" stroke-miterlimit="2" viewBox="0 0 1500 220" xmlns="http://www.w3.org/2000/svg"><path d="m1470.86 49.45c17.51 17.53 26.56 43.73 26.18 75.76 0 5.99-.35 10.19-.37 10.37l-.1 1.26h-133.2c3.63 31.08 20.14 47.5 47.83 47.5 20.1 0 33.51-8.24 38.78-23.83l.3-.95h45.71l-.42 1.7c-8.85 36.24-41.05 58.74-84.01 58.74-56.71 0-93.36-37.49-93.36-95.51 0-59.03 36.8-98.7 91.57-98.7 25.91 0 45.62 8.18 61.09 23.66zm-106.35 55.97h88.14c-2.44-28.6-17.62-44.32-42.88-44.32-24.16 0-40.59 16.12-45.26 44.32zm-1364.51-78.225 46.97-.005v145.79h86.51v42.08h-133.48zm584.3-2.475c42.13 0 68.29 28.79 68.29 75.14v115.2h-45.11v-107.4c0-27.75-12.99-43.66-35.64-43.66-22.72 0-37.41 16.16-37.41 41.17v109.89h-45.12v-107.4c0-27.75-13.11-43.66-35.98-43.66-22.73 0-37.42 16.16-37.42 41.17v109.89h-45.11v-186.08h41.54v21.97c12.14-16.96 31.31-26.23 54.5-26.23 25.86 0 46.27 11.3 57.73 31.9 12.79-20.6 33.9-31.9 59.73-31.9zm112.78 192.81v-187.87h44.5v187.87zm188.28-192.81c43.08 0 68.8 27.82 68.8 74.42v115.92h-44.98v-106.7c0-29.49-12.66-45.07-36.59-45.07-24.1 0-39.07 17.41-39.07 45.43v106.34h-44.98v-186.08h41.42v22.18c12.07-17.54 30.69-26.44 55.4-26.44zm192.41 0c51.74 0 79.08 23.49 79.08 67.92v123.09h-41.07v-21.22c-13.91 16.92-33.24 25.49-57.52 25.49-38.84 0-67.02-23.63-67.02-56.19 0-33.71 22.63-53.87 65.46-58.3l55.53-5.58v-9.42c0-25.92-18.74-31.36-34.46-31.36-22.12 0-33.97 8.91-37.32 28.04l-.2 1.14h-45.3l.2-1.56c5.35-40.01 34.69-62.05 82.62-62.05zm34.11 104.37-45.29 5.85c-19.18 2.21-29.31 11.45-29.31 26.74 0 15.35 12.56 25.67 31.26 25.67 27.14 0 43.34-16.78 43.34-44.88zm144.29-129.09.01 28.06h39.1v38.11h-39.11v86.78c0 17.09 7.46 25.39 22.79 25.39 6.12 0 10.77-.34 14.7-1.04l1.62-.3v37.76l-1.08.23c-8.69 1.9-14.96 2.54-24.83 2.54-38.13 0-58.28-21.47-58.28-62.08v-89.28h-29.52v-38.12h6.45c3.23 0 11.87-.7 16.87-6.04 5.16-5.5 6.2-13.16 6.2-17.58v-4.43zm-975.16 138.13v-108.47h45.28v186.08h-41.35v-23.34c-12.7 18.08-31.88 27.6-55.76 27.6-41.96 0-66.03-25.06-66.03-68.74v-121.6h45.27v116.27c0 23.12 11.56 35.86 32.55 35.86 24.33 0 40.04-17.14 40.04-43.66z"/></svg>

<?xml version="1.0" encoding="UTF-8" standalone="no"?><!DOCTYPE svg PUBLIC "-//W3C//DTD SVG 1.1//EN" "http://www.w3.org/Graphics/SVG/1.1/DTD/svg11.dtd"><svg width="100%" height="100%" viewBox="0 0 1500 220" version="1.1" xmlns="http://www.w3.org/2000/svg" xmlns:xlink="http://www.w3.org/1999/xlink" xml:space="preserve" xmlns:serif="http://www.serif.com/" style="fill-rule:evenodd;clip-rule:evenodd;stroke-linejoin:round;stroke-miterlimit:2;"><path d="M1470.86,49.45C1488.37,66.98 1497.42,93.18 1497.04,125.21C1497.04,131.2 1496.69,135.4 1496.67,135.58L1496.57,136.84L1363.37,136.84C1367,167.92 1383.51,184.34 1411.2,184.34C1431.3,184.34 1444.71,176.1 1449.98,160.51L1450.28,159.56L1495.99,159.56L1495.57,161.26C1486.72,197.5 1454.52,220 1411.56,220C1354.85,220 1318.2,182.51 1318.2,124.49C1318.2,65.46 1355,25.79 1409.77,25.79C1435.68,25.79 1455.39,33.97 1470.86,49.45ZM1364.51,105.42L1452.65,105.42C1450.21,76.82 1435.03,61.1 1409.77,61.1C1385.61,61.1 1369.18,77.22 1364.51,105.42ZM0,27.195L46.97,27.19L46.97,172.98L133.48,172.98L133.48,215.06L0,215.06L0,27.195ZM584.3,24.72C626.43,24.72 652.59,53.51 652.59,99.86L652.59,215.06L607.48,215.06L607.48,107.66C607.48,79.91 594.49,64 571.84,64C549.12,64 534.43,80.16 534.43,105.17L534.43,215.06L489.31,215.06L489.31,107.66C489.31,79.91 476.2,64 453.33,64C430.6,64 415.91,80.16 415.91,105.17L415.91,215.06L370.8,215.06L370.8,28.98L412.34,28.98L412.34,50.95C424.48,33.99 443.65,24.72 466.84,24.72C492.7,24.72 513.11,36.02 524.57,56.62C537.36,36.02 558.47,24.72 584.3,24.72ZM697.08,217.53L697.08,29.66L741.58,29.66L741.58,217.53L697.08,217.53ZM885.36,24.72C928.44,24.72 954.16,52.54 954.16,99.14L954.16,215.06L909.18,215.06L909.18,108.36C909.18,78.87 896.52,63.29 872.59,63.29C848.49,63.29 833.52,80.7 833.52,108.72L833.52,215.06L788.54,215.06L788.54,28.98L829.96,28.98L829.96,51.16C842.03,33.62 860.65,24.72 885.36,24.72ZM1077.77,24.72C1129.51,24.72 1156.85,48.21 1156.85,92.64L1156.85,215.73L1115.78,215.73L1115.78,194.51C1101.87,211.43 1082.54,220 1058.26,220C1019.42,220 991.24,196.37 991.24,163.81C991.24,130.1 1013.87,109.94 1056.7,105.51L1112.23,99.93L1112.23,90.51C1112.23,64.59 1093.49,59.15 1077.77,59.15C1055.65,59.15 1043.8,68.06 1040.45,87.19L1040.25,88.33L994.95,88.33L995.15,86.77C1000.5,46.76 1029.84,24.72 1077.77,24.72ZM1111.88,129.09L1066.59,134.94C1047.41,137.15 1037.28,146.39 1037.28,161.68C1037.28,177.03 1049.84,187.35 1068.54,187.35C1095.68,187.35 1111.88,170.57 1111.88,142.47L1111.88,129.09ZM1256.17,-0L1256.18,28.06L1295.28,28.06L1295.28,66.17L1256.17,66.17L1256.17,152.95C1256.17,170.04 1263.63,178.34 1278.96,178.34C1285.08,178.34 1289.73,178 1293.66,177.3L1295.28,177L1295.28,214.76L1294.2,214.99C1285.51,216.89 1279.24,217.53 1269.37,217.53C1231.24,217.53 1211.09,196.06 1211.09,155.45L1211.09,66.17L1181.57,66.17L1181.57,28.05L1188.02,28.05C1191.25,28.05 1199.89,27.35 1204.89,22.01C1210.05,16.51 1211.09,8.85 1211.09,4.43L1211.09,0L1256.17,-0ZM281.01,138.13L281.01,29.66L326.29,29.66L326.29,215.74L284.94,215.74L284.94,192.4C272.24,210.48 253.06,220 229.18,220C187.22,220 163.15,194.94 163.15,151.26L163.15,29.66L208.42,29.66L208.42,145.93C208.42,169.05 219.98,181.79 240.97,181.79C265.3,181.79 281.01,164.65 281.01,138.13Z"/></svg>
